X:34a
T:Denver Belle
C:Paul Warren
S:Jim Coon to CoMandoList TOW
M:4/4
L:1/8
Q:1/8=460
K:C
|:"C"egze gede|aged cAGc|e2[e2e2] e2[e2e2]|edcB AGAc|!
"G"Bd2d [g4d4]|dedc BGz2|"F"DEFG ABcd|
K:G
"C"ecdc [eA][ec]z2 ::"G"BGBd g2dc|BGBd b2ag|"D7"fgag fdef|!
"G"gfga gfed|BGBd g2dc|BGBd b2ag|\
"D7"fgag fdBd|1 g"G"fga g2dc:|2 g"G"fga "G7"=f4|!
